svg/fluentui-system-icons/ic_fluent_people_audience_24_filled.svg

<svg width="24" height="24" viewBox="0 0 24 24" fill="none" xmlns="http://www.w3.org/2000/svg">
<path d="M14.754 10C15.7205 10 16.504 10.7835 16.504 11.75V15H16.5V16H7.5V13H7.50193V11.75C7.50193 10.7835 8.28543 10 9.25193 10H14.754ZM22 11.75C22 10.7835 21.2165 10 20.25 10L16.8747 9.99906C17.2678 10.4747 17.504 11.0847 17.504 11.75V13H17.5V16H21.25C21.6642 16 22 15.6642 22 15.25V11.75ZM6.5 15H6.50193V11.75L6.51057 11.5304C6.55636 10.9508 6.78183 10.4218 7.13128 9.99906L3.75 10L3.60647 10.0058C2.70711 10.0788 2 10.8318 2 11.75V15.25C2 15.6642 2.33579 16 2.75 16H6.5V15ZM12 3C13.6569 3 15 4.34315 15 6C15 7.65685 13.6569 9 12 9C10.3431 9 9 7.65685 9 6C9 4.34315 10.3431 3 12 3ZM18.5 4C19.8807 4 21 5.11929 21 6.5C21 7.88071 19.8807 9 18.5 9C17.1193 9 16 7.88071 16 6.5C16 5.11929 17.1193 4 18.5 4ZM5.5 4C6.88071 4 8 5.11929 8 6.5C8 7.88071 6.88071 9 5.5 9C4.11929 9 3 7.88071 3 6.5C3 5.11929 4.11929 4 5.5 4ZM2 17.75C2 17.3358 2.33579 17 2.75 17H21.25C21.6642 17 22 17.3358 22 17.75V18.25C22 20.3211 20.3211 22 18.25 22H5.75C3.67893 22 2 20.3211 2 18.25V17.75Z" fill="#212121"/>
</svg>

<svg xmlns="http://www.w3.org/2000/svg" width="24" height="24"><path d="M14.754 10c.966 0 1.75.784 1.75 1.75V15H16.5v1h-9v-3h.002v-1.25c0-.966.783-1.75 1.75-1.75h5.502ZM22 11.75A1.75 1.75 0 0 0 20.25 10h-3.375c.393.475.629 1.085.629 1.75V13H17.5v3h3.75a.75.75 0 0 0 .75-.75v-3.5ZM6.5 15h.002v-3.25l.009-.22a2.72 2.72 0 0 1 .62-1.53H3.75l-.144.006A1.75 1.75 0 0 0 2 11.75v3.5c0 .414.336.75.75.75H6.5v-1ZM12 3a3 3 0 1 1 0 6 3 3 0 0 1 0-6Zm6.5 1a2.5 2.5 0 1 1 0 5 2.5 2.5 0 0 1 0-5Zm-13 0a2.5 2.5 0 1 1 0 5 2.5 2.5 0 0 1 0-5ZM2 17.75a.75.75 0 0 1 .75-.75h18.5a.75.75 0 0 1 .75.75v.5A3.75 3.75 0 0 1 18.25 22H5.75A3.75 3.75 0 0 1 2 18.25v-.5Z"/></svg>
